img/svg/Group.svg

<svg width="199" height="50" viewBox="0 0 199 50" fill="none" xmlns="http://www.w3.org/2000/svg">
<ellipse cx="25" cy="25.5" rx="24" ry="24.5" fill="white"/>
<path d="M18.5144 0.877464C6.94289 4.38148 0 13.4919 0 25.0051C0 34.4159 4.82984 42.6253 12.779 46.73C16.9044 48.8324 17.5082 47.3307 13.6845 44.4273C10.9678 42.2248 10.4647 41.2237 10.4647 37.5194C10.4647 34.9164 9.86092 32.814 8.95533 32.0131C7.14414 30.5114 6.94289 26.6069 8.75408 25.2053C9.45844 24.6046 10.1628 22.6023 10.2634 20.8003C10.7665 14.1927 17.9107 7.9856 25.0548 7.9856C32.1989 7.9856 39.3431 14.1927 39.8462 20.8003C39.9468 22.6023 40.6511 24.6046 41.3555 25.2053C43.1667 26.6069 42.9654 30.5114 41.1543 32.0131C40.2487 32.814 39.6449 34.9164 39.6449 37.5194C39.6449 41.2237 39.1418 42.2248 36.425 44.4273C32.1989 47.7311 33.4064 48.9325 38.1356 46.0292C44.7766 41.9245 49.7071 33.0143 49.7071 25.1052C49.7071 9.28709 33.2051 -3.52758 18.5144 0.877464Z" fill="#D41443"/>
<path d="M19.8225 12.4908C18.0113 13.2917 16.502 14.2928 16.502 14.8935C16.502 15.9948 21.9355 17.9971 25.0548 17.9971C28.1741 17.9971 33.6076 15.9948 33.6076 14.8935C33.6076 13.6921 27.3691 10.989 24.8535 10.989C23.8473 11.0892 21.533 11.6898 19.8225 12.4908Z" fill="#D41443"/>
<path d="M71.6425 17.6968C70.1332 18.0972 69.8313 19.3987 69.8313 26.607V35.0166H73.3531H76.9754L76.6736 26.3066C76.3717 17.1962 75.9692 16.4954 71.6425 17.6968Z" fill="#D41443"/>
<path d="M83.4152 18.1974C80.0947 19.9995 78.8872 22.202 78.8872 26.5069C78.8872 32.4137 82.1071 35.2169 88.0438 34.8164C92.0686 34.5161 92.4711 34.2157 92.773 31.7129C93.0749 29.21 92.8736 29.0098 89.7543 29.21C86.5345 29.5104 86.4338 29.3101 86.4338 26.0063C86.4338 22.7026 86.6351 22.5023 89.5531 22.8027C91.968 23.0029 92.8736 22.6025 93.2761 21.1007C93.4773 20.0996 93.2761 18.698 92.6724 18.0973C91.2637 16.6957 86.0313 16.6957 83.4152 18.1974Z" fill="#D41443"/>
<path d="M95.3892 18.2973C95.0873 19.0982 94.9867 23.0027 95.188 27.1074L95.4898 34.5159H102.03C108.068 34.5159 108.571 34.3156 108.872 32.2132C109.174 30.3111 108.772 30.0107 105.653 30.0107C103.64 30.0107 102.03 29.5101 102.03 29.0096C102.03 28.4089 103.439 28.0084 105.049 28.0084C107.363 28.0084 108.068 27.608 108.068 26.0061C108.068 24.4043 107.363 24.0038 105.049 24.0038C103.439 24.0038 102.03 23.5033 102.03 23.0027C102.03 22.402 103.338 22.0015 104.948 22.0015C107.766 22.0015 109.677 19.799 108.47 17.8968C107.564 16.3951 95.9929 16.7956 95.3892 18.2973Z" fill="#D41443"/>
<path d="M115.614 17.9971C112.294 19.2986 110.986 21.6012 110.885 25.806C110.784 33.0143 113.702 35.5172 121.249 34.8164C124.167 34.6161 124.67 34.1156 124.67 32.0132C124.67 29.8106 124.268 29.5103 121.45 29.8106C119.035 30.0109 118.13 29.7105 117.627 28.1087C116.721 25.0051 118.633 22.5023 121.853 22.5023C123.765 22.5023 124.771 21.9016 124.972 20.6001C125.676 17.3964 120.545 15.8947 115.614 17.9971Z" fill="#D41443"/>
<path d="M127.991 17.5966C127.487 17.9971 127.186 22.1018 127.186 26.7071V35.1167L130.405 34.8164C132.921 34.6161 133.827 33.9153 134.33 32.0131L134.933 29.5103L135.738 32.2134C136.342 34.516 137.046 35.0166 139.663 35.0166C143.989 35.0166 144.492 34.3158 142.681 30.8118C141.574 28.6092 141.373 27.508 142.178 26.7071C143.486 25.4056 143.587 21.0005 142.379 19.0984C141.373 17.4965 129.299 16.195 127.991 17.5966ZM136.241 23.0028C136.241 24.1041 135.839 25.0051 135.235 25.0051C134.732 25.0051 134.229 24.1041 134.229 23.0028C134.229 21.9016 134.732 21.0005 135.235 21.0005C135.839 21.0005 136.241 21.9016 136.241 23.0028Z" fill="#D41443"/>
<path d="M146.002 17.6968C145.599 17.9971 145.298 22.1018 145.298 26.7071V35.0166H151.838C158.177 35.0166 158.378 34.9165 158.378 32.5137C158.378 30.4113 157.875 30.0109 155.36 30.0109C153.75 30.0109 152.341 29.5103 152.341 29.0097C152.341 28.409 153.448 28.0086 154.857 28.0086C156.668 28.0086 157.372 27.508 157.372 26.0063C157.372 24.5046 156.668 24.004 154.857 24.004C153.448 24.004 152.341 23.5034 152.341 23.0028C152.341 22.4022 153.75 22.0017 155.36 22.0017C157.875 22.0017 158.378 21.6012 158.378 19.4988C158.378 17.0961 158.077 16.996 152.542 16.996C149.322 16.996 146.304 17.2963 146.002 17.6968Z" fill="#D41443"/>
<path d="M166.328 17.5969C164.516 18.0974 159.888 31.4127 160.793 33.6152C161.598 35.6175 166.126 35.4173 167.334 33.3149C168.239 31.6129 168.34 31.6129 170.151 33.3149C172.466 35.3172 177.497 35.6175 177.497 33.7153C177.497 33.1146 176.49 29.11 175.182 25.0053C173.17 18.3978 172.566 17.4967 170.453 17.2965C169.044 17.2965 167.233 17.3966 166.328 17.5969ZM169.145 26.7073C168.843 27.7084 168.642 27.1078 168.642 25.5059C168.642 23.804 168.843 23.1032 169.145 23.7039C169.346 24.4047 169.346 25.8063 169.145 26.7073Z" fill="#D41443"/>
<path d="M180.817 17.6968C179.911 17.9971 179.509 20.8003 179.509 26.607V35.0166H182.427C184.942 35.0166 185.445 34.516 185.848 32.2134C186.25 29.6104 186.25 29.6104 187.055 31.7128C187.458 33.0143 188.464 34.0155 189.168 34.0155C189.973 34.0155 191.08 33.0143 191.583 31.7128C192.388 29.6104 192.489 29.6104 192.489 32.3135C192.59 34.8164 192.891 35.1167 195.709 34.8164L198.828 34.516L198.929 26.2065C199.13 18.4977 199.029 17.897 196.916 17.3964C193.696 16.5955 190.98 18.4977 190.074 22.2019L189.37 25.5057L188.263 22.0017C186.854 17.2963 184.741 16.0949 180.817 17.6968Z" fill="#D41443"/>
<path d="M14.0869 18.6978C13.785 19.0983 13.4832 20.3998 13.4832 21.7013C13.4832 24.0039 13.5838 24.0039 25.0546 24.0039C36.5255 24.0039 36.6261 24.0039 36.6261 21.7013C36.6261 18.2974 35.7205 17.8969 32.5006 19.4987C28.8783 21.4009 21.231 21.4009 17.6086 19.4987C15.9987 18.6978 14.4894 18.3975 14.0869 18.6978Z" fill="#D41443"/>
<path d="M11.1688 27.608C9.5589 29.31 12.2757 30.0108 20.1242 30.0108H28.5764V33.5148C28.5764 35.417 29.0795 37.0188 29.5826 37.0188C30.1863 37.0188 30.5888 35.5171 30.5888 33.6149C30.5888 30.3111 30.7901 30.1109 34.6137 29.8105C36.8274 29.6103 38.6386 29.0096 38.6386 28.5091C38.6386 27.4078 12.2757 26.5068 11.1688 27.608Z" fill="#D41443"/>
<path d="M13.4832 36.4181C13.4832 41.9244 15.395 43.0256 25.0546 43.0256C34.7143 43.0256 36.6261 41.9244 36.6261 36.4181C36.6261 34.0153 36.123 33.0142 35.1168 33.0142C34.2112 33.0142 33.6075 33.9152 33.6075 35.4169C33.6075 41.0233 25.9602 41.5239 24.8534 36.0176C24.3503 33.1143 24.0484 33.0142 18.9167 33.0142H13.4832V36.4181Z" fill="#D41443"/>
<path d="M19.7219 47.7312C20.3257 50.9349 30.5891 50.6345 30.5891 47.531C30.5891 46.4297 29.281 46.0292 24.9542 46.0292C20.225 46.0292 19.4201 46.3296 19.7219 47.7312Z" fill="#D41443"/>
</svg>

<svg width="199" height="50" fill="none" xmlns="http://www.w3.org/2000/svg"><ellipse cx="25" cy="25.5" rx="24" ry="24.5" fill="#fff"/><path d="M18.514.877C6.943 4.381 0 13.492 0 25.005c0 9.41 4.83 17.62 12.779 21.725 4.125 2.102 4.73.6.905-2.303-2.716-2.202-3.22-3.203-3.22-6.908 0-2.603-.603-4.705-1.509-5.506-1.81-1.502-2.012-5.406-.2-6.808.703-.6 1.408-2.603 1.508-4.405.504-6.607 7.648-12.814 14.792-12.814S39.343 14.193 39.846 20.8c.1 1.802.805 3.805 1.51 4.405 1.81 1.402 1.61 5.306-.202 6.808-.905.801-1.51 2.903-1.51 5.506 0 3.705-.502 4.706-3.219 6.908-4.226 3.304-3.019 4.505 1.71 1.602 6.642-4.105 11.572-13.015 11.572-20.924 0-15.818-16.502-28.633-31.193-24.228Z" fill="#D41443"/><path d="M19.823 12.49c-1.812.802-3.321 1.803-3.321 2.403 0 1.102 5.434 3.104 8.553 3.104 3.12 0 8.553-2.002 8.553-3.104 0-1.2-6.239-3.904-8.754-3.904-1.007.1-3.321.7-5.031 1.502ZM71.642 17.697c-1.509.4-1.81 1.702-1.81 8.91v8.41h7.143l-.301-8.71c-.302-9.11-.705-9.812-5.032-8.61ZM83.415 18.197c-3.32 1.803-4.528 4.005-4.528 8.31 0 5.907 3.22 8.71 9.157 8.31 4.025-.3 4.427-.601 4.729-3.104.302-2.503.1-2.703-3.019-2.503-3.22.3-3.32.1-3.32-3.204 0-3.303.201-3.504 3.12-3.203 2.414.2 3.32-.2 3.722-1.702.201-1.001 0-2.403-.604-3.004-1.408-1.401-6.64-1.401-9.257.1ZM95.39 18.297c-.303.801-.403 4.706-.202 8.81l.302 7.409h6.54c6.038 0 6.541-.2 6.842-2.303.302-1.902-.1-2.202-3.219-2.202-2.013 0-3.623-.5-3.623-1.001 0-.601 1.409-1.002 3.019-1.002 2.314 0 3.019-.4 3.019-2.002 0-1.602-.705-2.002-3.019-2.002-1.61 0-3.019-.5-3.019-1.001 0-.601 1.308-1.002 2.918-1.002 2.818 0 4.729-2.202 3.522-4.104-.906-1.502-12.477-1.101-13.08.4ZM115.614 17.997c-3.32 1.302-4.628 3.604-4.729 7.809-.101 7.208 2.817 9.711 10.364 9.01 2.918-.2 3.421-.7 3.421-2.803 0-2.202-.402-2.503-3.22-2.202-2.415.2-3.32-.1-3.823-1.702-.906-3.104 1.006-5.607 4.226-5.607 1.912 0 2.918-.6 3.119-1.902.704-3.204-4.427-4.705-9.358-2.603ZM127.991 17.597c-.504.4-.805 4.505-.805 9.11v8.41l3.219-.3c2.516-.2 3.422-.902 3.925-2.804l.603-2.503.805 2.703c.604 2.303 1.308 2.804 3.925 2.804 4.326 0 4.829-.701 3.018-4.205-1.107-2.203-1.308-3.304-.503-4.105 1.308-1.301 1.409-5.707.201-7.609-1.006-1.601-13.08-2.903-14.388-1.501Zm8.25 5.406c0 1.101-.402 2.002-1.006 2.002-.503 0-1.006-.9-1.006-2.002 0-1.101.503-2.003 1.006-2.003.604 0 1.006.902 1.006 2.003ZM146.002 17.697c-.403.3-.704 4.405-.704 9.01v8.31h6.54c6.339 0 6.54-.1 6.54-2.503 0-2.103-.503-2.503-3.018-2.503-1.61 0-3.019-.5-3.019-1.001 0-.601 1.107-1.001 2.516-1.001 1.811 0 2.515-.501 2.515-2.003 0-1.501-.704-2.002-2.515-2.002-1.409 0-2.516-.5-2.516-1.001 0-.6 1.409-1.001 3.019-1.001 2.515 0 3.018-.4 3.018-2.503 0-2.403-.301-2.503-5.836-2.503-3.22 0-6.238.3-6.54.7ZM166.328 17.597c-1.812.5-6.44 13.816-5.535 16.018.805 2.002 5.333 1.802 6.541-.3.905-1.702 1.006-1.702 2.817 0 2.315 2.002 7.346 2.303 7.346.4 0-.6-1.007-4.605-2.315-8.71-2.012-6.607-2.616-7.508-4.729-7.708-1.409 0-3.22.1-4.125.3Zm2.817 9.11c-.302 1.001-.503.4-.503-1.201 0-1.702.201-2.403.503-1.802.201.7.201 2.102 0 3.003ZM180.817 17.697c-.906.3-1.308 3.103-1.308 8.91v8.41h2.918c2.515 0 3.018-.501 3.421-2.804.402-2.603.402-2.603 1.207-.5.403 1.301 1.409 2.303 2.113 2.303.805 0 1.912-1.002 2.415-2.303.805-2.103.906-2.103.906.6.101 2.503.402 2.804 3.22 2.503l3.119-.3.101-8.31c.201-7.708.1-8.309-2.013-8.81-3.22-.8-5.936 1.102-6.842 4.806l-.704 3.304-1.107-3.504c-1.409-4.706-3.522-5.907-7.446-4.305ZM14.087 18.698c-.302.4-.604 1.702-.604 3.003 0 2.303.1 2.303 11.572 2.303 11.47 0 11.571 0 11.571-2.303 0-3.404-.905-3.804-4.125-2.202-3.623 1.902-11.27 1.902-14.892 0-1.61-.801-3.12-1.101-3.522-.801ZM11.169 27.608c-1.61 1.702 1.107 2.403 8.955 2.403h8.452v3.504c0 1.902.503 3.504 1.007 3.504.603 0 1.006-1.502 1.006-3.404 0-3.304.201-3.504 4.025-3.805 2.213-.2 4.025-.8 4.025-1.3 0-1.102-26.363-2.003-27.47-.902Z" fill="#D41443"/><path d="M13.483 36.418c0 5.506 1.912 6.608 11.572 6.608s11.571-1.102 11.571-6.608c0-2.403-.503-3.404-1.51-3.404-.905 0-1.508.901-1.508 2.403 0 5.606-7.648 6.107-8.755.6-.503-2.903-.805-3.003-5.936-3.003h-5.434v3.404ZM19.722 47.731c.604 3.204 10.867 2.904 10.867-.2 0-1.101-1.308-1.502-5.635-1.502-4.729 0-5.534.3-5.232 1.702Z" fill="#D41443"/></svg>
